X:1
T:Title
%%score { 1 | 2 }
L:1/8
M:3/4
K:E
V:1 treble nm="Grand Piano"
V:2 bass 
V:1
 z2 z2[Q:1/4=100] E2 | G3 G AG | [EG]2 [DF]2 [DF]2 | [DB]3 [DF] [DF][D=G] |[M:2/4] G4 |[M:1/4] E2 | %6
[M:3/4] [Ec]3 [Ec] [Ec][Ec] | c2 B2 G2 | GF F2 F2 |[M:2/4] [DF]4 |[M:1/4] [DF]2 | %11
[M:3/4] [FA]3 [FA] [EG][DF] |[M:7/8] [EG]2 [EB]3 [B,=DE]2 |[M:3/4] [A,CE][A,CE] [CE]2 [^B,DF]2 | %14
[M:2/4] [B,EG]4 |] %15
V:2
 z2 z2 [E,G,]2 | [E,B,E]3 [E,B,E] [E,CE][E,B,E] | [B,,B,]2 [B,,B,]2 [B,,B,]2 | %3
 [B,,F,]3 [B,,B,] [B,,B,][B,,B,] |[M:2/4] [E,B,E]4 |[M:1/4] [E,G,]2 | %6
[M:3/4] [A,,A,]3 [B,,A,] [C,A,][D,A,] | [E,A,E]2 [E,G,E]2 [E,B,E]2 | %8
 [F,B,D][F,B,D] [F,^A,C]2 [F,CE]2 |[M:2/4] [B,,B,]4 |[M:1/4] [B,,B,]2 | %11
[M:3/4] [B,,B,]3 [B,,B,] [B,,B,][B,,B,] |[M:7/8] [E,B,]2 [E,G,]3 G,,2 |[M:3/4] A,,A,, A,,2 A,,2 | %14
[M:2/4] E,4 |] %15

